X:1
T:Title
%%score { ( 1 4 ) | ( 2 3 ) }
L:1/8
M:4/4
K:G
V:1 treble nm="Grand Piano"
V:4 treble 
V:2 bass 
V:3 bass 
V:1
 z4 z[Q:1/4=100] D^CD | [DB]3 [DB] [Ec]BGE | [CG] [CF]3- [CF]DFA | [Fd]3 c EF[CB]A | %4
 [B,D]4- [B,D]BBB | [^DB]3 B BEcB | [^CB] [CA]3- [CA]EFG | [DB]3 B [Fd]c[CE]F | %8
[M:5/8] [B,G]-[B,G]- [B,G]3 |[M:3/8] de>B |[M:4/4] c6 z2 | B6 B2 | B3 [Ge] d2 [G^c]2 | %13
[M:17/16] d/-d/-d/-d/-d/-d/-d/-d-<d z/ z/ z/ z/ z |[M:4/4] c6 z2 | B6 z2 | %16
 [Gd]3 [^CG] [DGB]2 .[=CFA]2 |[M:5/8] [B,DG]-[B,DG]- [B,DG]3 |] %18
V:2
 z4 z B,_B,=B, | G,,D,G,D, G,DB,B, | A,,D,A,D, A,CCC | D,,D,DE CC z C | z G,F,E, D,[K:treble]GFE | %5
 B,,F,B,[A,^D] [E,^G,=D]D[E,G,E]D | A,,E,A,E, A,^C=CB, | D,,D,G,G [D,,D,]E z C | %8
[M:5/8] z E,D, B,,D, |[M:3/8][K:treble] Bc>G |[M:4/4] F6[K:bass][K:treble] z2 | %11
 G[G,D][K:bass][G,D][G,D] G,2 [G,D][F,A,] | [E,G,E]3 [E,B,] [A,F]2 [A,,A,]2 | %13
[M:17/16] D,-[D,-A,][D,-B,][D,-B,][D,C]3/2[K:treble]Bc>G |[M:4/4] F6[K:bass][K:treble] z2 | %15
 G[G,D][K:bass][G,D][G,D] G,2 [^C,_B,]2 | [D,B,]3 E, D,2 z D |[M:5/8] G,,-G,,- G,,3 |] %18
V:3
 x8 | x8 | x8 | z4 z2 D,,2 | G,,6[K:treble] z2 | x8 | x8 | z4 z2 D,2 |[M:5/8] G,,-G,,- G,,3 | %9
[M:3/8][K:treble] x3 |[M:4/4] z[K:bass] D, .F,2 D,[K:treble]G F>F | x2[K:bass] x6 | x8 | %13
[M:17/16] .A,3/2 z/ z/ z/ z/ z/ z/ z/ z/[K:treble] z/ z/ z/ z/ z | %14
[M:4/4] z[K:bass] D, .F,2 D,[K:treble]G F>F | x2[K:bass] x6 | z4 z2 D,2 |[M:5/8] x5 |] %18
V:4
 x8 | x8 | x8 | x8 | x8 | x8 | x8 | x8 |[M:5/8] x5 |[M:3/8] x3 |[M:4/4] z A,A,A, A,^c d>A | %11
 z GFE D2 z ^D | x8 |[M:17/16] FFGGA3/2de>B |[M:4/4] z A,A,A, A,^c d>A | z GFE D2 [Ge]2 | x8 | %17
[M:5/8] x5 |] %18

